svg/blobs-icons/no-decorations/servers.svg

<svg xmlns="http://www.w3.org/2000/svg" xmlns:xlink="http://www.w3.org/1999/xlink" preserveAspectRatio="xMidYMid" width="216" height="208" viewBox="0 0 216 208"><defs><style>.cls-3{fill:#fbb713}.cls-4{fill:#000;opacity:.35}.cls-6{fill:#ff3a2f}.cls-8{fill:#142a3b}.cls-9{fill:#ededed}</style></defs><g id="group-136svg"><path d="M214.896 207.49s-214.274.0-214.274.0.0-159.461.0-159.461 214.274.0 214.274.0.0 159.461.0 159.461z" id="path-1" class="cls-3" fill-rule="evenodd"/><path d="M214.896 207.49s-214.274.0-214.274.0.0-159.461.0-159.461 214.274.0 214.274.0.0 159.461.0 159.461z" id="path-2" class="cls-4" fill-rule="evenodd"/><path d="M176.76.014s-138.003.0-138.003.0S-.011 47.64-.011 47.64s215.54.0 215.54.0S176.76.014 176.76.014z" id="path-3" class="cls-3" fill-rule="evenodd"/><path d="M214.896 94.894s-214.274.0-214.274.0.0-46.865.0-46.865 214.274.0 214.274.0.0 46.865.0 46.865z" id="path-4" class="cls-6" fill-rule="evenodd"/><path d="M214.896 94.894s-214.274.0-214.274.0.0-46.865.0-46.865 214.274.0 214.274.0.0 46.865.0 46.865z" id="path-5" class="cls-4" fill-rule="evenodd"/><path d="M214.896 206.888s-214.274.0-214.274.0.0-53.326.0-53.326 214.274.0 214.274.0.0 53.326.0 53.326z" id="path-6" class="cls-8" fill-rule="evenodd"/><path d="M39.518 192.47C32.181 192.47 26.212 186.501 26.212 179.164 26.212 171.827 32.181 165.858 39.518 165.858 46.856 165.858 52.824 171.827 52.824 179.164 52.824 186.501 46.856 192.47 39.518 192.47z" id="path-7" class="cls-9" fill-rule="evenodd"/><path d="M39.518 139.246c-7.337.0-13.306-5.97-13.306-13.305.0-7.337 5.969-13.306 13.306-13.306C46.856 112.635 52.824 118.604 52.824 125.941 52.824 133.276 46.856 139.246 39.518 139.246z" id="path-8" class="cls-9" fill-rule="evenodd"/><circle id="circle-1" class="cls-9" cx="40" cy="73" r="14"/><path d="M188.11 73.669s-14.201.0-14.201.0C170.932 73.669 168.521 71.258 168.521 68.283c0-2.977 2.411-5.389 5.38800000000001-5.389H188.11C191.086 62.894 193.498 65.306 193.498 68.283 193.498 71.258 191.086 73.669 188.11 73.669z" id="path-9" class="cls-9" fill-rule="evenodd"/><path d="M147.547 73.669s-14.201.0-14.201.0C130.369 73.669 127.958 71.258 127.958 68.283c0-2.977 2.411-5.389 5.38800000000001-5.389h14.201C150.524 62.894 152.936 65.306 152.936 68.283 152.936 71.258 150.524 73.669 147.547 73.669z" id="path-10" class="cls-9" fill-rule="evenodd"/><path d="M188.11 131.33s-14.201.0-14.201.0C170.932 131.33 168.521 128.919 168.521 125.942 168.521 122.965 170.932 120.553 173.909 120.553H188.11C191.086 120.553 193.498 122.965 193.498 125.942 193.498 128.919 191.086 131.33 188.11 131.33z" id="path-11" class="cls-9" fill-rule="evenodd"/><path d="M147.547 131.33s-14.201.0-14.201.0C130.369 131.33 127.958 128.919 127.958 125.942 127.958 122.965 130.369 120.553 133.346 120.553h14.201C150.524 120.553 152.936 122.965 152.936 125.942 152.936 128.919 150.524 131.33 147.547 131.33z" id="path-12" class="cls-9" fill-rule="evenodd"/><path d="M188.11 183.085s-14.201.0-14.201.0C170.932 183.085 168.521 180.674 168.521 177.698 168.521 174.721 170.932 172.309 173.909 172.309H188.11C191.086 172.309 193.498 174.721 193.498 177.698 193.498 180.674 191.086 183.085 188.11 183.085z" id="path-13" class="cls-9" fill-rule="evenodd"/><path d="M147.547 183.085s-14.201.0-14.201.0C130.369 183.085 127.958 180.674 127.958 177.698 127.958 174.721 130.369 172.309 133.346 172.309h14.201C150.524 172.309 152.936 174.721 152.936 177.698 152.936 180.674 150.524 183.085 147.547 183.085z" id="path-14" class="cls-9" fill-rule="evenodd"/></g></svg>

<svg xmlns="http://www.w3.org/2000/svg" xmlns:xlink="http://www.w3.org/1999/xlink" preserveAspectRatio="xMidYMid" width="216" height="208" viewBox="0 0 216 208">
  <defs>
    <style>

      .cls-3 {
        fill: #fbb713;
      }

      .cls-4 {
        fill: #000000;
        opacity: 0.35;
      }

      .cls-6 {
        fill: #ff3a2f;
      }

      .cls-8 {
        fill: #142a3b;
      }

      .cls-9 {
        fill: #ededed;
      }
    </style>
  </defs>
  <g id="group-136svg">
    <path d="M214.896,207.490 C214.896,207.490 0.622,207.490 0.622,207.490 C0.622,207.490 0.622,48.029 0.622,48.029 C0.622,48.029 214.896,48.029 214.896,48.029 C214.896,48.029 214.896,207.490 214.896,207.490 Z" id="path-1" class="cls-3" fill-rule="evenodd"/>
    <path d="M214.896,207.490 C214.896,207.490 0.622,207.490 0.622,207.490 C0.622,207.490 0.622,48.029 0.622,48.029 C0.622,48.029 214.896,48.029 214.896,48.029 C214.896,48.029 214.896,207.490 214.896,207.490 Z" id="path-2" class="cls-4" fill-rule="evenodd"/>
    <path d="M176.760,0.014 C176.760,0.014 38.757,0.014 38.757,0.014 C38.757,0.014 -0.011,47.640 -0.011,47.640 C-0.011,47.640 215.529,47.640 215.529,47.640 C215.529,47.640 176.760,0.014 176.760,0.014 Z" id="path-3" class="cls-3" fill-rule="evenodd"/>
    <path d="M214.896,94.894 C214.896,94.894 0.622,94.894 0.622,94.894 C0.622,94.894 0.622,48.029 0.622,48.029 C0.622,48.029 214.896,48.029 214.896,48.029 C214.896,48.029 214.896,94.894 214.896,94.894 Z" id="path-4" class="cls-6" fill-rule="evenodd"/>
    <path d="M214.896,94.894 C214.896,94.894 0.622,94.894 0.622,94.894 C0.622,94.894 0.622,48.029 0.622,48.029 C0.622,48.029 214.896,48.029 214.896,48.029 C214.896,48.029 214.896,94.894 214.896,94.894 Z" id="path-5" class="cls-4" fill-rule="evenodd"/>
    <path d="M214.896,206.888 C214.896,206.888 0.622,206.888 0.622,206.888 C0.622,206.888 0.622,153.562 0.622,153.562 C0.622,153.562 214.896,153.562 214.896,153.562 C214.896,153.562 214.896,206.888 214.896,206.888 Z" id="path-6" class="cls-8" fill-rule="evenodd"/>
    <path d="M39.518,192.470 C32.181,192.470 26.212,186.501 26.212,179.164 C26.212,171.827 32.181,165.858 39.518,165.858 C46.856,165.858 52.824,171.827 52.824,179.164 C52.824,186.501 46.856,192.470 39.518,192.470 Z" id="path-7" class="cls-9" fill-rule="evenodd"/>
    <path d="M39.518,139.246 C32.181,139.246 26.212,133.276 26.212,125.941 C26.212,118.604 32.181,112.635 39.518,112.635 C46.856,112.635 52.824,118.604 52.824,125.941 C52.824,133.276 46.856,139.246 39.518,139.246 Z" id="path-8" class="cls-9" fill-rule="evenodd"/>
    <circle id="circle-1" class="cls-9" cx="40" cy="73" r="14"/>
    <path d="M188.110,73.669 C188.110,73.669 173.909,73.669 173.909,73.669 C170.932,73.669 168.521,71.258 168.521,68.283 C168.521,65.306 170.932,62.894 173.909,62.894 C173.909,62.894 188.110,62.894 188.110,62.894 C191.086,62.894 193.498,65.306 193.498,68.283 C193.498,71.258 191.086,73.669 188.110,73.669 Z" id="path-9" class="cls-9" fill-rule="evenodd"/>
    <path d="M147.547,73.669 C147.547,73.669 133.346,73.669 133.346,73.669 C130.369,73.669 127.958,71.258 127.958,68.283 C127.958,65.306 130.369,62.894 133.346,62.894 C133.346,62.894 147.547,62.894 147.547,62.894 C150.524,62.894 152.936,65.306 152.936,68.283 C152.936,71.258 150.524,73.669 147.547,73.669 Z" id="path-10" class="cls-9" fill-rule="evenodd"/>
    <path d="M188.110,131.330 C188.110,131.330 173.909,131.330 173.909,131.330 C170.932,131.330 168.521,128.919 168.521,125.942 C168.521,122.965 170.932,120.553 173.909,120.553 C173.909,120.553 188.110,120.553 188.110,120.553 C191.086,120.553 193.498,122.965 193.498,125.942 C193.498,128.919 191.086,131.330 188.110,131.330 Z" id="path-11" class="cls-9" fill-rule="evenodd"/>
    <path d="M147.547,131.330 C147.547,131.330 133.346,131.330 133.346,131.330 C130.369,131.330 127.958,128.919 127.958,125.942 C127.958,122.965 130.369,120.553 133.346,120.553 C133.346,120.553 147.547,120.553 147.547,120.553 C150.524,120.553 152.936,122.965 152.936,125.942 C152.936,128.919 150.524,131.330 147.547,131.330 Z" id="path-12" class="cls-9" fill-rule="evenodd"/>
    <path d="M188.110,183.085 C188.110,183.085 173.909,183.085 173.909,183.085 C170.932,183.085 168.521,180.674 168.521,177.698 C168.521,174.721 170.932,172.309 173.909,172.309 C173.909,172.309 188.110,172.309 188.110,172.309 C191.086,172.309 193.498,174.721 193.498,177.698 C193.498,180.674 191.086,183.085 188.110,183.085 Z" id="path-13" class="cls-9" fill-rule="evenodd"/>
    <path d="M147.547,183.085 C147.547,183.085 133.346,183.085 133.346,183.085 C130.369,183.085 127.958,180.674 127.958,177.698 C127.958,174.721 130.369,172.309 133.346,172.309 C133.346,172.309 147.547,172.309 147.547,172.309 C150.524,172.309 152.936,174.721 152.936,177.698 C152.936,180.674 150.524,183.085 147.547,183.085 Z" id="path-14" class="cls-9" fill-rule="evenodd"/>
  </g>
</svg>
